X: 1
T: The Caithness Rant
M: C|
L: 1/8
R: Reel
B: Stewart-Robertson – The Athole Collection  (1884)
Z: Andrew Kuntz / Fiddler’s Companion
K: Cm
e/d/ |\
c2 BG FECD | E2EG BGEe | c2 BG FECc | eceG F/F/F F :|
d \
| efgf e/e/e ed | cBce f/f/f fg \
| efgf e/e/e ed | cBGB c/c/c c ||
d \
| efgf e/e/e ed | cBce f/f/f fg \
| egfg efde | cBGB cede |]
%%center Book18/CaithnessReel_Eb-AK.abc

%%sep 1 1 500
%%sep 1 1 500

